X:1
T:King Of The Fairies
M:4/4
L:1/8
R:hornpipe
O:Trad. (22.1.2014/NS)
K:Edor
|:B,2|"Em"EDEF GFGA|B2B2 G2GA|B2E2 EFGE|"D"FGFE D2B,2|
"Em"EDEF GFGA|BAGB "D"d3c|"C"B2E2 "D"GFED|"Em"E6 :|
|:B2|"Em"e2e2 Bdef|gagf efed|e2B2 BABc|"Hm"dedc BcdB|
"Em"e2B2 Bdef|gagf efed|"C"Bdeg "D"fedf|"Em"e6 ef|
"G"g3e "D"f3d|"Hm"edBc d3e|"D"dBAF GABc|"A"dBAF GFED|
"Em"B,2E2 EFGA|B2e2 edef|"C"e2B2 "D"BAGF|"Em"E6:|
